src/assets/icons/svg/lock-open.svg

<svg width="64" height="64" viewBox="0 0 64 64" fill="none" xmlns="http://www.w3.org/2000/svg">
<path d="M57.5 45.25C58.8807 45.25 60 44.1307 60 42.75V33.5C60 27.986 55.514 23.5 50 23.5H21.9954V14.6833C21.9954 9.34388 26.4814 5 31.9954 5C37.5094 5 41.9954 9.37387 41.9954 14.75C41.9954 16.1308 43.1146 17.25 44.4954 17.25C45.8761 17.25 46.9954 16.1308 46.9954 14.75C46.9954 6.61687 40.2664 0 31.9954 0C23.7244 0 16.9954 6.58687 16.9954 14.6833V23.5H14C8.486 23.5 4 27.986 4 33.5V54C4 59.514 8.486 64 14 64H50C55.514 64 60 59.514 60 54C60 52.6193 58.8807 51.5 57.5 51.5C56.1193 51.5 55 52.6193 55 54C55 56.757 52.757 59 50 59H14C11.243 59 9 56.757 9 54V33.5C9 30.743 11.243 28.5 14 28.5H50C52.757 28.5 55 30.743 55 33.5V42.75C55 44.1307 56.1193 45.25 57.5 45.25Z" fill="black"/>
<path d="M32 45.875C33.3807 45.875 34.5 44.7557 34.5 43.375C34.5 41.9943 33.3807 40.875 32 40.875C30.6193 40.875 29.5 41.9943 29.5 43.375C29.5 44.7557 30.6193 45.875 32 45.875Z" fill="black"/>
</svg>

<?xml version="1.0" encoding="iso-8859-1"?>
<!-- Generator: Adobe Illustrator 23.1.0, SVG Export Plug-In . SVG Version: 6.00 Build 0)  -->
<svg version="1.1" id="&#x421;&#x43B;&#x43E;&#x439;_1"
	 xmlns="http://www.w3.org/2000/svg" xmlns:xlink="http://www.w3.org/1999/xlink" x="0px" y="0px" viewBox="0 0 64 64"
	 style="enable-background:new 0 0 64 64;" xml:space="preserve">
<path d="M57.5,45.25c1.381,0,2.5-1.119,2.5-2.5V33.5c0-5.514-4.486-10-10-10H21.995v-8.817c0-5.339,4.486-9.683,10-9.683
	s10,4.374,10,9.75c0,1.381,1.119,2.5,2.5,2.5c1.381,0,2.5-1.119,2.5-2.5c0-8.133-6.729-14.75-15-14.75s-15,6.587-15,14.683V23.5H14
	c-5.514,0-10,4.486-10,10V54c0,5.514,4.486,10,10,10h36c5.514,0,10-4.486,10-10c0-1.381-1.119-2.5-2.5-2.5S55,52.619,55,54
	c0,2.757-2.243,5-5,5H14c-2.757,0-5-2.243-5-5V33.5c0-2.757,2.243-5,5-5h36c2.757,0,5,2.243,5,5v9.25
	C55,44.131,56.119,45.25,57.5,45.25z"/>
<path d="M32,45.875c1.381,0,2.5-1.119,2.5-2.5s-1.119-2.5-2.5-2.5s-2.5,1.119-2.5,2.5S30.619,45.875,32,45.875z"/>
</svg>
